icons/evolvere-blue-folders-flat-vivid-dark-fallback/actions/64/system-suspend-hibernate.svg

<?xml version="1.0" encoding="UTF-8" standalone="no"?>
<!-- Created with Inkscape (http://www.inkscape.org/) -->

<svg
   xmlns:dc="http://purl.org/dc/elements/1.1/"
   xmlns:cc="http://creativecommons.org/ns#"
   xmlns:rdf="http://www.w3.org/1999/02/22-rdf-syntax-ns#"
   xmlns:svg="http://www.w3.org/2000/svg"
   xmlns="http://www.w3.org/2000/svg"
   xmlns:sodipodi="http://sodipodi.sourceforge.net/DTD/sodipodi-0.dtd"
   xmlns:inkscape="http://www.inkscape.org/namespaces/inkscape"
   width="64"
   height="64"
   id="svg13094"
   version="1.1"
   inkscape:version="0.91+devel r"
   sodipodi:docname="system-suspend-hibernate.svg">
  <sodipodi:namedview
     id="base"
     pagecolor="#ffffff"
     bordercolor="#666666"
     borderopacity="1.0"
     inkscape:pageopacity="0"
     inkscape:pageshadow="2"
     inkscape:zoom="11.313709"
     inkscape:cx="12.435498"
     inkscape:cy="31.596804"
     inkscape:document-units="px"
     inkscape:current-layer="svg13094"
     showgrid="true"
     inkscape:snap-bbox="true"
     inkscape:bbox-paths="true"
     inkscape:bbox-nodes="true"
     inkscape:snap-bbox-edge-midpoints="true"
     inkscape:snap-bbox-midpoints="true"
     inkscape:object-paths="true"
     inkscape:snap-intersection-paths="true"
     inkscape:object-nodes="true"
     inkscape:snap-smooth-nodes="true"
     inkscape:snap-midpoints="true"
     inkscape:snap-object-midpoints="true"
     inkscape:snap-center="true"
     showguides="true"
     inkscape:guide-bbox="true"
     inkscape:window-width="1920"
     inkscape:window-height="1023"
     inkscape:window-x="-10"
     inkscape:window-y="35"
     inkscape:window-maximized="1"
     inkscape:snap-global="true"
     fit-margin-top="0"
     fit-margin-left="0"
     fit-margin-right="0"
     fit-margin-bottom="0"
     showborder="true"
     inkscape:showpageshadow="false"
     inkscape:snap-page="true">
    <inkscape:grid
       type="xygrid"
       id="grid3075"
       empspacing="5"
       visible="true"
       enabled="true"
       snapvisiblegridlinesonly="true"
       originx="1.6362304e-08px"
       originy="18px" />
  </sodipodi:namedview>
  <defs
     id="defs13096" />
  <metadata
     id="metadata13099">
    <rdf:RDF>
      <cc:Work
         rdf:about="">
        <dc:format>image/svg+xml</dc:format>
        <dc:type
           rdf:resource="http://purl.org/dc/dcmitype/StillImage" />
        <dc:title></dc:title>
      </cc:Work>
    </rdf:RDF>
  </metadata>
  <path
     inkscape:connector-curvature="0"
     style="color:#000000;fill:#814dcd;fill-opacity:1;fill-rule:nonzero;stroke:none;stroke-width:2.28571415;marker:none;visibility:visible;display:inline;overflow:visible;enable-background:accumulate"
     d="m 0,4 0,30 0,28 2,2 30,0 30,0 2,-2 L 64,34 64,4 32,4 0,4 z"
     id="path4095" />
  <path
     inkscape:connector-curvature="0"
     style="color:#000000;fill:#b56cff;fill-opacity:1;fill-rule:nonzero;stroke:none;stroke-width:2.28571415000000000;marker:none;visibility:visible;display:inline;overflow:visible;enable-background:accumulate"
     d="M 2,0 0,1 0,4 32,4 64,4 64,1 62,0 32,0 2,0 z"
     id="path4090" />
  <path
     inkscape:connector-curvature="0"
     style="fill:#c48aff;fill-opacity:1;fill-rule:nonzero"
     d="M 0,3 0,6 2,4 Z"
     id="path4298"
     sodipodi:nodetypes="cccc" />
  <path
     d="M 64,6 62,4 64,3 z"
     id="path3028"
     style="fill:#9c5de6;fill-opacity:1"
     inkscape:connector-curvature="0" />
  <g
     id="g3043"
     inkscape:export-filename="folder.png"
     inkscape:export-xdpi="90"
     inkscape:export-ydpi="90"
     transform="translate(-0.62500009,0.082283)" />
  <g
     id="scalable"
     transform="matrix(1.0385892,0,0,1.0385892,1214.7222,1878.8121)"
     inkscape:label="#g3701"
     style="fill:#ffffff" />
  <path
     inkscape:connector-curvature="0"
     style="fill:#e7e1e8;fill-opacity:1;fill-rule:nonzero;stroke:none;color:#000000;marker:none;visibility:visible;display:inline;overflow:visible;enable-background:accumulate"
     d="m 32,18 c -8.8366,0 -16,7.1634 -16,16 0,8.8366 7.1634,16 16,16 8.8366,0 16,-7.1634 16,-16 0,-8.8366 -7.1634,-16 -16,-16 z m 0,4 c 6.6274,0 12,5.3726 12,12 0,6.6274 -5.3726,12 -12,12 -6.6274,0 -12,-5.3726 -12,-12 0,-6.6274 5.3726,-12 12,-12 z m -7.0625,4.9375 c -3.905242,3.905242 -3.905242,10.219758 0,14.125 3.905242,3.905242 10.219758,3.905242 14.125,0 L 36.25,38.25 c -2.343146,2.343146 -6.156854,2.343146 -8.5,0 -2.343146,-2.343146 -2.343146,-6.156854 0,-8.5 l -2.8125,-2.8125 z"
     id="path2988" />
</svg>

<svg xmlns="http://www.w3.org/2000/svg" viewBox="0 0 64 64"><g color="#000"><path d="m0 4v30 28l2 2h30 30l2-2v-28-30h-32-32" fill="#814dcd"/><path d="m2 0l-2 1v3h32 32v-3l-2-1h-30-30" fill="#b56cff"/></g><path d="m0 3v3l2-2" fill="#c48aff"/><path d="m64 6l-2-2 2-1z" fill="#9c5de6"/><path d="m32 18c-8.837 0-16 7.163-16 16 0 8.837 7.163 16 16 16 8.837 0 16-7.163 16-16 0-8.837-7.163-16-16-16m0 4c6.627 0 12 5.373 12 12 0 6.627-5.373 12-12 12-6.627 0-12-5.373-12-12 0-6.627 5.373-12 12-12m-7.06 4.938c-3.905 3.905-3.905 10.22 0 14.13 3.905 3.905 10.22 3.905 14.13 0l-2.813-2.813c-2.343 2.343-6.157 2.343-8.5 0-2.343-2.343-2.343-6.157 0-8.5l-2.813-2.813" fill="#e7e1e8" color="#000"/></svg>
